brandFactory_export/3.Masa/Buscar_3Masa.svg

<?xml version="1.0" encoding="UTF-8"?>
<svg width="24px" height="24px" viewBox="0 0 24 24" version="1.1" xmlns="http://www.w3.org/2000/svg" xmlns:xlink="http://www.w3.org/1999/xlink">
    <title>3.Masa/Buscar_3Masa</title>
    <g id="Symbols" stroke="none" stroke-width="1" fill="none" fill-rule="evenodd">
        <g id="3.Masa/Buscar_3Masa" fill="#5CB615" fill-rule="nonzero">
            <path d="M16.1008403,2.86722689 C19.4789747,6.35454048 19.6299151,11.8020983 16.5536616,15.4645855 L23.3983193,22.3092437 C23.6605042,22.5714286 23.6605042,22.9983193 23.3983193,23.2605042 C23.2672269,23.3882353 23.0991597,23.4588235 22.9210084,23.4588235 C22.7428571,23.4588235 22.5714286,23.3882353 22.4470588,23.2605042 L15.611504,16.4245295 C13.9083766,17.9083833 11.7186511,18.7321726 9.44537815,18.7260843 C4.24537815,18.7260843 0.0302521008,14.5109244 0.0302521008,9.31092437 C0.0302521008,6.81344538 1.02184874,4.42016807 2.78655462,2.65210084 C6.52436975,-0.964705882 12.4840336,-0.867226891 16.1008403,2.86722689 Z M9.44537815,1.24029658 C4.98823529,1.24029658 1.37478992,4.85378151 1.37478992,9.31092437 C1.37478992,11.4521008 2.22521008,13.502521 3.73781513,15.0184874 C6.86717297,18.1712987 11.953578,18.2015176 15.1222062,15.0924999 C15.1438214,15.0646027 15.1674118,15.0390756 15.1932773,15.0151261 L15.2132521,14.998695 L15.3467393,14.863437 C18.3186581,11.7106472 18.2707283,6.74747899 15.1966387,3.64705882 C15.1831933,3.6302521 15.1663866,3.61680672 15.1529412,3.60336134 C13.6403361,2.08403361 11.5865546,1.23361345 9.44537815,1.24029658 Z M4.64537815,4.51092437 C7.33109244,1.82521008 11.6840336,1.82521008 14.3697479,4.51092437 C15.6638655,5.79831933 16.389916,7.54957983 16.3832396,9.37142857 C16.3832396,11.1966387 15.6605042,12.9445378 14.3697479,14.2352941 C11.6840336,16.9210084 7.33109244,16.9210084 4.64537815,14.2352941 C1.95966387,11.5495798 1.95966387,7.19663866 4.64537815,4.51092437 Z" id="Buscar_3Masa"></path>
        </g>
    </g>
</svg>

<svg width="24" height="24" viewBox="0 0 24 24" xmlns="http://www.w3.org/2000/svg"><path d="M16.1 2.867a9.414 9.414 0 01.454 12.598l6.844 6.844a.674.674 0 01-.95.952l-6.836-6.836a9.35 9.35 0 01-6.167 2.301A9.415 9.415 0 012.787 2.652a9.418 9.418 0 0113.314.215zM9.446 1.24a8.07 8.07 0 00-5.707 13.778 8.073 8.073 0 0011.384.074.635.635 0 01.071-.077l.02-.016.134-.136a8.07 8.07 0 00-.15-11.216c-.014-.017-.03-.03-.044-.044A8.017 8.017 0 009.445 1.24zm-4.8 3.27a6.875 6.875 0 019.725 0 6.824 6.824 0 012.013 4.861 6.875 6.875 0 01-11.738 4.864 6.875 6.875 0 010-9.724z" fill="#5CB615" fill-rule="nonzero"/></svg>
